examples/demo-composable-pfp/assets/expression/silly.svg

<?xml version="1.0" encoding="UTF-8"?>
<svg width="264px" height="280px" viewBox="0 0 264 280" version="1.1" xmlns="http://www.w3.org/2000/svg" xmlns:xlink="http://www.w3.org/1999/xlink">
    <!-- Generator: Sketch 58 (84663) - https://sketch.com -->
    <title>EDIT ME</title>
    <desc>Created with Sketch.</desc>
    <defs>
        <path d="M29,15.6086957 C30.410031,25.2313711 41.062182,33 54,33 C66.9681454,33 77.6461342,25.183301 79,14.7391304 C79.1012093,14.3397326 78.775269,13 76.826087,13 C56.838426,13 41.7395748,13 31.173913,13 C29.3833142,13 28.870211,14.2404669 29,15.6086957 Z" id="path-1"></path>
    </defs>
    <g id="EDIT-ME" stroke="none" stroke-width="1" fill="none" fill-rule="evenodd">
        <g id="Face" transform="translate(76.000000, 82.000000)">
            <g id="Mouth/Tongue" transform="translate(2.000000, 52.000000)">
                <mask id="mask-2" fill="white">
                    <use xlink:href="#path-1"></use>
                </mask>
                <use id="Mouth" fill-opacity="0.699999988" fill="#000000" fill-rule="evenodd" xlink:href="#path-1"></use>
                <path d="M44,2 L65,2 C67.7614237,2 70,4.23857625 70,7 L70,13 C70,15.7614237 67.7614237,18 65,18 L44,18 C41.2385763,18 39,15.7614237 39,13 L39,7 C39,4.23857625 41.2385763,2 44,2 Z" id="Teeth" fill="#FFFFFF" fill-rule="evenodd" mask="url(#mask-2)"></path>
                <path d="M59.5,20 C63.0898509,20 66,21.5670034 66,23.5 C66,23.5829439 65.9946418,23.6652139 65.9841015,23.7467151 C65.9945755,23.8293228 66,23.9140279 66,24 L66,33 C66,39.0751322 61.0751322,44 55,44 L54,44 C47.9248678,44 43,39.0751322 43,33 L43,24 C43,23.9140279 43.0054245,23.8293228 43.0159499,23.7462082 C43.0053582,23.6652139 43,23.5829439 43,23.5 C43,21.5670034 45.9101491,20 49.5,20 C51.5110191,20 53.3087347,20.4917558 54.5010337,21.2641296 C55.6909749,20.4918353 57.4888185,20 59.5,20 Z" id="Tongue" fill="#FF4F6D" fill-rule="evenodd"></path>
            </g>
            <g id="Nose/Default" transform="translate(28.000000, 40.000000)" fill="#000000" fill-opacity="0.16">
                <path d="M16,8 C16,12.418278 21.372583,16 28,16 L28,16 C34.627417,16 40,12.418278 40,8" id="Nose"></path>
            </g>
            <g id="Eyes/Wink-Wacky-😜" transform="translate(0.000000, 8.000000)">
                <circle id="Cornea?-I-don't-know" fill="#FFFFFF" cx="82" cy="22" r="12"></circle>
                <circle id="Eye" fill-opacity="0.699999988" fill="#000000" cx="82" cy="22" r="6"></circle>
                <path d="M16.1601674,25.4473116 C18.006676,21.648508 22.1644225,19 26.9975803,19 C31.8136766,19 35.9591217,21.629842 37.8153518,25.4071242 C38.3667605,26.5291977 37.5821037,27.4474817 36.790607,26.7670228 C34.3395063,24.6597833 30.8587163,23.3437884 26.9975803,23.3437884 C23.2572061,23.3437884 19.8737584,24.5787519 17.4375392,26.5716412 C16.5467928,27.3002944 15.6201012,26.5583844 16.1601674,25.4473116 Z" id="Winky-Doodle" fill-opacity="0.599999964" fill="#000000"></path>
            </g>
            <g id="Eyebrow/Outline/Default" fill="#000000" fill-opacity="0.599999964">
                <g id="I-Browse" transform="translate(12.000000, 6.000000)">
                    <path d="M3.63024536,11.1585767 C7.54515501,5.64986673 18.2779197,2.56083721 27.5230268,4.83118046 C28.5957248,5.0946055 29.6788665,4.43856013 29.9422916,3.36586212 C30.2057166,2.2931641 29.5496712,1.21002236 28.4769732,0.94659732 C17.7403633,-1.69001789 5.31209962,1.88699832 0.369754639,8.84142326 C-0.270109626,9.74178291 -0.0589363917,10.9903811 0.84142326,11.6302454 C1.74178291,12.2701096 2.9903811,12.0589364 3.63024536,11.1585767 Z" id="Eyebrow" fill-rule="nonzero"></path>
                    <path d="M61.6302454,11.1585767 C65.545155,5.64986673 76.2779197,2.56083721 85.5230268,4.83118046 C86.5957248,5.0946055 87.6788665,4.43856013 87.9422916,3.36586212 C88.2057166,2.2931641 87.5496712,1.21002236 86.4769732,0.94659732 C75.7403633,-1.69001789 63.3120996,1.88699832 58.3697546,8.84142326 C57.7298904,9.74178291 57.9410636,10.9903811 58.8414233,11.6302454 C59.7417829,12.2701096 60.9903811,12.0589364 61.6302454,11.1585767 Z" id="Eyebrow" fill-rule="nonzero" transform="translate(73.000154, 6.039198) scale(-1, 1) translate(-73.000154, -6.039198) "></path>
                </g>
            </g>
        </g>
    </g>
</svg>

<svg xmlns="http://www.w3.org/2000/svg" xmlns:xlink="http://www.w3.org/1999/xlink" width="264" height="280"><defs><path id="e7b7be26__a" d="M29 15.609C30.41 25.23 41.062 33 54 33c12.968 0 23.646-7.817 25-18.26.101-.4-.225-1.74-2.174-1.74H31.174c-1.79 0-2.304 1.24-2.174 2.609"/></defs><g fill="none" fill-rule="evenodd"><g transform="translate(78 134)"><mask id="144fe3cb__b" fill="#fff"><use xlink:href="#e7b7be26__a"/></mask><use xlink:href="#e7b7be26__a" fill="#000" fill-opacity=".7"/><path fill="#FFF" d="M44 2h21a5 5 0 0 1 5 5v6a5 5 0 0 1-5 5H44a5 5 0 0 1-5-5V7a5 5 0 0 1 5-5" mask="url(#144fe3cb__b)"/><path fill="#FF4F6D" d="M59.5 20c3.59 0 6.5 1.567 6.5 3.5q0 .124-.016.247Q66 23.87 66 24v9c0 6.075-4.925 11-11 11h-1c-6.075 0-11-4.925-11-11v-9q0-.128.016-.254A2 2 0 0 1 43 23.5c0-1.933 2.91-3.5 6.5-3.5 2.011 0 3.809.492 5.001 1.264C55.691 20.492 57.489 20 59.5 20"/></g><path fill="#000" fill-opacity=".16" d="M120 130c0 4.418 5.373 8 12 8s12-3.582 12-8"/><g transform="translate(76 90)"><circle cx="82" cy="22" r="12" fill="#FFF"/><circle cx="82" cy="22" r="6" fill="#000" fill-opacity=".7"/><path fill="#000" fill-opacity=".6" d="M16.16 25.447C18.007 21.65 22.164 19 26.998 19c4.816 0 8.961 2.63 10.817 6.407.552 1.122-.233 2.04-1.024 1.36-2.451-2.107-5.932-3.423-9.793-3.423-3.74 0-7.124 1.235-9.56 3.228-.891.728-1.818-.014-1.278-1.125"/></g><g fill="#000" fill-opacity=".6" fill-rule="nonzero"><path d="M91.63 99.159c3.915-5.51 14.648-8.598 23.893-6.328a2 2 0 0 0 .954-3.884c-10.737-2.637-23.165.94-28.107 7.894a2 2 0 0 0 3.26 2.318M172.37 99.159c-3.915-5.51-14.648-8.598-23.893-6.328a2 2 0 0 1-.954-3.884c10.737-2.637 23.165.94 28.108 7.894a2 2 0 0 1-3.26 2.318"/></g></g></svg>
